resources/img/aside-1.svg

<svg width="24" height="24" viewBox="0 0 24 24" fill="none" xmlns="http://www.w3.org/2000/svg">
<g clip-path="url(#clip0_123_10813)">
<path d="M22.6501 14.3902L12.0001 22.1302L1.35014 14.3902C1.20737 14.2852 1.10146 14.1377 1.04758 13.9689C0.993694 13.8001 0.994592 13.6185 1.05014 13.4502L2.27014 9.67021L4.71014 2.16021C4.73381 2.09901 4.77148 2.04421 4.82014 2.00021C4.89938 1.92783 5.00282 1.8877 5.11014 1.8877C5.21746 1.8877 5.32091 1.92783 5.40014 2.00021C5.45153 2.04987 5.48939 2.11182 5.51014 2.18021L7.95014 9.67021H16.0501L18.4901 2.16021C18.5138 2.09901 18.5515 2.04421 18.6001 2.00021C18.6794 1.92783 18.7828 1.8877 18.8901 1.8877C18.9975 1.8877 19.1009 1.92783 19.1801 2.00021C19.2315 2.04987 19.2694 2.11182 19.2901 2.18021L21.7301 9.6902L23.0001 13.4502C23.0507 13.6237 23.0439 13.8088 22.9809 13.9782C22.9178 14.1475 22.8018 14.292 22.6501 14.3902Z" stroke="white" stroke-width="2" stroke-linecap="round" stroke-linejoin="round"/>
</g>
<defs>
<clipPath id="clip0_123_10813">
<rect width="24" height="24" fill="white"/>
</clipPath>
</defs>
</svg>

<svg width="24" height="24" fill="none" xmlns="http://www.w3.org/2000/svg"><g clip-path="url(#clip0_123_10813)"><path d="M22.65 14.39L12 22.13 1.35 14.39a.84.84 0 01-.3-.94l1.22-3.78 2.44-7.51A.43.43 0 015.4 2a.42.42 0 01.11.18l2.44 7.49h8.1l2.44-7.51a.43.43 0 01.69-.16.42.42 0 01.11.18l2.44 7.51L23 13.45a.84.84 0 01-.35.94z" stroke="#fff" stroke-width="2" stroke-linecap="round" stroke-linejoin="round"/></g><defs><clipPath id="clip0_123_10813"><path fill="#fff" d="M0 0h24v24H0z"/></clipPath></defs></svg>
